X: 1
T: Arizona
C: Keith Murphy
S: Paul Lizotte's Joy of Sets collection
S: printed copy of unknown origin
R: reel
Z: 2015 John Chambers <jc:trillian.mit.edu>
M: C|
L: 1/8
K: G
|:\
"G"B,CDE DCB,C | DGGF GDB,D |\
"Am"C2CD CB,A,B, | "D7"CAAB A2GA |
"G"B2Bc BAGF | "C"EDB,D A,B,G,B, |\
"Am"C2CD CA,B,C | "D7"DGGF [1 "G"GDB,D :|[2 "G"GDGA ||
|:\
"G"BGAG ABBA | BdBA GFED |\
"Em"E2B,G EDB,G, | "D7"A,B,DE DFGA |
"G"BGAG ABBA | "G"BdBA GFED |\
"C"C2CD EFGE | "D7"FGAF [1 GABc :|[2 "G"GDB,D |]
